!!!OTL: Schifflein, Schifflein
!!!id: T0441
**kern
*clefG2
*k[f#c#]
*D:
{8d
8f#
=1
4a
4a
8b
8a
=2
4f#
8d}
=3
{8d
8d
8f#
=4
4a
4a
8b
8a
=5
4f#
8d}
=6
{8f#
8a
8a
=7
4b
4a
8b
8cc#
=8
8dd
8cc#
8dd}
=9
{8a
8g
8f#
=10
4b
4a
8f#
8e
=11
4d}
4r
==
*-
!!!minrhy: 8
!!!meters: 3/4 ]  ZZ[4
!!!cut1: Schifflein, Schifflein
!!!cut2: la&szlig; dich lenken (252a), S. 539
!!!reg: Luxemburg
!!!trd: Singendes Volk, Esch-Alzette, 1937 posth.
!!!rhy1: XX  X_X_XX  X_X
!!!rhy2: XXX  X_X_XX  X_X
!!!key: T0441  08  D 3/4 ]  ZZ[4
!!!mod: HEPTATONIK IONISCH]  AMBITUS[8
!!!kad: 11+11
!!!akz: 53_53_6+1_61_
!!!fot: 'a__av_b__c__
!!!for: 'a__av_b__aw_
!!!fok: '^__^__/__\__
!! PHRAS[AUFTAKTIG]
!!!fkt: Abschiedslied, Soldatenlied, Kriegslied
!!!bem1: Rammeldingen, J.P. Gloden, 26.12.1932;
!!!bem2: (252b)- Blascheid, hhh Nikolaus Perl, 1902
!! THILL; Mathias
!! PR[47] 2K[5] 2G[11] 3K[5] 3G[8] 4A[2] 4Ü[0] 5A[0] 6K[0] 6G[0]
!! 7K[0] 7G[0] 8A[0] MEHR[0] SI[32] ABS[96] SR[17] SP[16]
!! ST[24] 2k[0] 2g[7] 3k[5] 3g[4] 4d[0] 4ü[0] 5d[2] 6k[0] 6g[0]
!! 7k[2] 7g[0] 8d[0] mehr[0] si[21] dm[+11] sr[7] sp[14]
!! 1F[12] 2F[50] 3F[29] 4F[0] LF[0] 2P[0] 3P[10] 4P[0] TRI[0] DF[4] AB[101]
!! TF[0] U3K[0] U3[0] U4[0] U4Ü[0] U5[14] U6K[0] U6[3] U7K[0] U7[3]
!! N1[38] N2K[0] N2[13] N3K[0] N3[21] N4[3] N4Ü[0] N5[4] N6K[0] N6[0]
!!!n7k: 0] N7[0] O1[0] O2K[0] O2[0] O3K[0] O3[0] HÖ[0
!!!RNB: symbol: &szlig; = sz ligature (UTF-8: ÃŸ)
